X:166 
T:Pleasant to Start* 
S:Grier MS
F:file ID: cre.4/166pleas
B:CRE4.020: gan ainm, no repeats
N:The 6/8 version of this tune does not sound correct, at least to my ears. 
I have added a 9/8 version which I think is an improvement but you can 
decide for yourself!
L:1/8
Q:160
M:6/8
R:jig
K:D
AGF AGF|Bcd AGF|ABc dAF|GFE D2F|
AGF AGF|Bcd AGF|ABc dAF|GFE D3 ||
f2f a2a|gfe f2d|f2f a2a|gfe d3|
f2f a2a|gfe f2d|f2f a2a|gfe d3||

%%%


